X: 5
T: The Hag's Purse
R: jig
M: 6/8
L: 1/8
K: Dmix
G |: A2D FED | A2 B cAF | G2 E EDE | c2 d cAG |
| Ac/A/D FED | AdB cAF | GEE cEE | D3 DcB |
| A2D FED | AdB cAF | GEE EDE | ced cAG |
| ADD FED | AdB cAF | G3 cGE | D3 D2A ||
|: d2 e fed | efd cAF | G2 E E3 | c2 d cAG |
| Add fed | efd cAF | GEE cGE | D3 DE/F/G |
| Ade fed | efd cAF | GcA GcA | ced cAG |
| Ade fed | g/f/ed cAF | GE/F/G cGE | DFE DcB ||


Tune 926	Setting 14118

